X:14972
T:Schottisch 
C:Anton Gaisberger
S:Oberoesterreichisches Volksliedwerk OVLA MVIII 9
A:Gilgenberg. 
Z:abc transcription Simon Wascher
N:please mail errors to: simon.wascher@chello.at
M:2/4
L:1/16
K:D
FGA2 G2B2|A2AG F2A2|G2GF E2G2|FEFGA4|
FGA2 G2B2|A2AG F2A2|G2GF E2G2|F2F2F4:|
|:BA^GA c2c2|BA^GA d2d2|BA^GA g2c2|e2d2 dBA2|
BA^GA c2c2|BA^GA d2d2|BA^GA g2c2|d2dd d2d2:|
K:G
|:B4B3B|c2c2F4|e2e2c4|d2d2B4|
B4=G3B|c2c2F4|e2e2 F2EF|G2G2G4:|
